X: 36657
T: Sharig
R: jig
M: 6/8
K: Adorian
edB|A2 E ABA|ABA BGE|DEG GDE|GAA edB|
AAE ABA|ABA BGE|dee gde|1 BAA:|2 BAA AGE||
|:A2 g gea-|aeg gec|ceg geB-|Beg fdB|
EGA ~A3|Bc ~A3 ~G-|G2 E EFG|1 FAd zAG:|2 A z2||

